assets/logos/versace.svg

<svg width="117" height="24" viewBox="0 0 117 24" fill="none" xmlns="http://www.w3.org/2000/svg">
<path fill-rule="evenodd" clip-rule="evenodd" d="M105.305 0.459743H116.736V2.28124C116.404 2.16975 116.057 2.11228 115.707 2.11102H109.135V10.6225H115.527C115.987 10.6225 116.395 10.5721 116.736 10.4862V12.2997C116.446 12.2319 116.047 12.1974 115.553 12.1974H109.135V20.9984H115.51C115.86 20.9984 116.277 20.9475 116.736 20.8367V22.7945H105.322C105.413 22.4502 105.459 22.0954 105.458 21.7392V1.54046C105.458 1.09819 105.407 0.732294 105.305 0.459743ZM102.659 6.2562L99.3559 6.23124C99.1942 4.3753 98.1305 2.57875 95.7898 2.2478C90.7761 1.79654 89.3629 7.30298 89.4907 11.3293C89.619 15.2105 90.2394 21.1771 95.4149 21.1771C97.5858 21.1771 99.6709 18.9468 99.6025 17.0659L102.659 17.0409C102.437 20.9221 97.9857 23.1689 95.8662 23.2457C88.6231 23.4928 85.5921 18.6663 85.4393 11.7796C85.3036 5.54188 87.8569 0 95.0151 0C101.143 0.0853595 102.327 3.71139 102.659 6.2562ZM51.1458 20.2576L53.3337 18.4277C54.4738 20.3091 55.4103 21.1681 57.6746 21.1681C59.9723 21.1681 61.9051 19.7724 61.9051 17.3045C61.9051 16.087 61.4109 15.0912 60.4325 14.3424C59.9892 13.993 58.8661 13.389 57.0955 12.5463C54.4484 11.2784 51.8696 9.62665 51.8696 6.30762C51.8696 2.11951 55.4273 0.272551 59.1806 0.135776C61.4024 0.0509162 64.1604 1.2774 65.275 2.65563L63.0537 4.36631C62.6575 3.62697 62.0685 3.00871 61.3492 2.57718C60.6299 2.14564 59.8072 1.91694 58.9684 1.91535C56.1336 1.91535 53.8868 5.20094 56.2359 7.46521C56.8314 8.04376 58.0494 8.75858 59.9049 9.60968C62.8665 10.9974 65.3943 12.6567 65.3943 16.3256C65.3943 17.5935 65.0624 18.7766 64.407 19.8578C63.0881 22.0367 60.8833 23.1264 57.8023 23.1264C54.2612 23.1264 53.5638 22.3178 51.1458 20.2576ZM19.9766 0.459743H31.3983V2.28124C31.0665 2.16979 30.719 2.11232 30.369 2.11102H23.7983V10.6225H30.1903C30.65 10.6225 31.0589 10.5721 31.3988 10.4862V12.2997C31.1093 12.2319 30.7094 12.1974 30.2247 12.1974H23.7983V20.9984H30.1733C30.5223 20.9984 30.9396 20.9475 31.3988 20.8367V22.7945H19.9941C20.0775 22.4489 20.1202 22.0947 20.1214 21.7392V1.54046C20.1214 1.09819 20.07 0.732294 19.9766 0.459743ZM0 0.459743H4.15366V0.664406C4.15366 0.851598 4.21306 1.09819 4.3154 1.41317L10.1708 19.0407L16.1804 1.3363C16.2737 1.03879 16.3251 0.749266 16.3251 0.459743H18.3423C18.1381 0.817155 17.9849 1.13264 17.891 1.41317L11.0303 21.884C10.9625 22.0796 10.9031 22.3861 10.8521 22.795H7.44724C7.39579 22.4855 7.31899 22.1808 7.21762 21.884L0.493687 1.57491C0.338365 1.20036 0.17644 0.828576 0.00798685 0.459743H0ZM44.1154 12.1041C46.8389 11.5675 48.9245 9.48239 48.9245 6.50329C48.9245 2.59573 45.6558 0.459244 41.9959 0.459244H35.3059C35.3992 0.800183 35.4506 1.15759 35.4506 1.53198V21.7212C35.4506 22.1555 35.3992 22.5214 35.3059 22.794H39.2893C39.1919 22.4448 39.1432 22.0838 39.1446 21.7212V12.4445L40.421 12.5808L47.0945 22.794H51.1034L44.1154 12.1041ZM43.426 10.4019C42.7027 10.912 41.8341 11.1671 40.8383 11.1671H39.1361V2.08656H40.6596C41.9624 2.08656 42.9748 2.40953 43.6986 3.05597C44.6859 3.9505 45.1881 5.15901 45.1881 6.67401C45.1881 8.30832 44.6006 9.55128 43.426 10.4024M84.7754 21.867L77.3367 1.20052C77.254 0.961575 77.2053 0.712222 77.1919 0.459743H73.9737C73.9737 0.723808 73.9313 1.00435 73.829 1.28538L66.6203 21.867C66.526 22.164 66.3732 22.471 66.1691 22.7945H68.2457C68.2377 22.454 68.2801 22.1391 68.3739 21.867L70.5094 15.7975H78.7234L80.8344 21.8675C80.9452 22.1985 80.9962 22.5049 80.9962 22.7945H85.3036C85.056 22.4455 84.8778 22.1306 84.7754 21.867ZM71.0715 14.1547L74.5443 4.0688L78.1109 14.1547H71.0715Z" fill="white"/>
</svg>

<svg xmlns="http://www.w3.org/2000/svg" width="117" height="24" fill="none" viewBox="0 0 117 24"><path fill="#fff" fill-rule="evenodd" d="M105.305.46h11.431v1.82a3.3 3.3 0 0 0-1.029-.17h-6.572v8.512h6.392c.46 0 .868-.05 1.209-.137V12.3c-.29-.068-.689-.103-1.183-.103h-6.418v8.801h6.375c.35 0 .767-.05 1.226-.161v1.957h-11.414c.091-.344.137-.699.136-1.055V1.54c0-.442-.051-.808-.153-1.08m-2.646 5.796-3.303-.025c-.162-1.856-1.225-3.652-3.566-3.983-5.014-.451-6.427 5.055-6.3 9.081.129 3.881.75 9.848 5.925 9.848 2.17 0 4.256-2.23 4.188-4.111l3.056-.025c-.222 3.881-4.673 6.128-6.793 6.205-7.243.247-10.274-4.58-10.427-11.466C85.304 5.542 87.857 0 95.015 0c6.128.085 7.312 3.711 7.644 6.256M51.146 20.258l2.188-1.83c1.14 1.881 2.076 2.74 4.34 2.74 2.298 0 4.231-1.396 4.231-3.863 0-1.218-.494-2.214-1.473-2.963-.443-.349-1.566-.953-3.337-1.796-2.647-1.268-5.225-2.92-5.225-6.238 0-4.188 3.557-6.035 7.31-6.172 2.222-.085 4.98 1.141 6.095 2.52l-2.221 1.71a4.64 4.64 0 0 0-4.086-2.45c-2.834 0-5.081 3.285-2.732 5.55.595.578 1.813 1.293 3.669 2.144 2.962 1.387 5.49 3.047 5.49 6.716a6.7 6.7 0 0 1-.988 3.532c-1.319 2.179-3.524 3.268-6.605 3.268-3.54 0-4.238-.808-6.656-2.868M19.976.46h11.422v1.82a3.3 3.3 0 0 0-1.029-.17h-6.57v8.512h6.391c.46 0 .869-.05 1.209-.137V12.3c-.29-.068-.69-.103-1.174-.103h-6.427v8.801h6.375c.35 0 .767-.05 1.226-.161v1.957H19.994c.084-.345.126-.7.127-1.055V1.54c0-.442-.051-.808-.144-1.08M0 .46h4.154v.204c0 .188.06.434.161.75l5.856 17.627 6.01-17.705a3 3 0 0 0 .144-.876h2.017a5.5 5.5 0 0 0-.451.953l-6.86 20.471q-.103.296-.179.911H7.447a6 6 0 0 0-.23-.911L.495 1.574A34 34 0 0 0 .008.46zm44.115 11.644c2.724-.536 4.81-2.622 4.81-5.6 0-3.908-3.27-6.045-6.93-6.045h-6.69c.094.341.146.699.146 1.073v20.19c0 .433-.052.8-.145 1.072h3.983a4 4 0 0 1-.144-1.073v-9.276l1.276.136 6.673 10.213h4.01zm-.689-1.702c-.723.51-1.592.765-2.588.765h-1.702v-9.08h1.524q1.953 0 3.039.969c.987.894 1.49 2.103 1.49 3.618q0 2.451-1.763 3.728m41.35 11.465-7.44-20.666a2.7 2.7 0 0 1-.144-.741h-3.218c0 .264-.043.544-.145.825L66.62 21.867a4 4 0 0 1-.45.927h2.076c-.008-.34.034-.655.128-.927l2.135-6.07h8.214l2.111 6.07c.111.331.162.638.162.927h4.308a4.5 4.5 0 0 1-.529-.927m-13.704-7.712 3.472-10.086 3.567 10.086z" clip-rule="evenodd"/></svg>
